icon-svg/google-pixel.svg

<svg xmlns="http://www.w3.org/2000/svg" fill="#44739e" viewBox="0 0 24 24"><path d="M12.994 4.511a.923.923 0 0 0-.894.689.923.923 0 0 0-.891-.687H9.273a.922.922 0 0 0 0 1.843h1.939a.923.923 0 0 0 .891-.686.921.921 0 1 0 .891-1.157ZM9.273 6.128a.7.7 0 0 1 0-1.39h1.633a.76.76 0 0 0 0 1.39zm1.94-.162a.534.534 0 1 1 .533-.533.534.534 0 0 1-.533.533m1.781.162a.7.7 0 1 1 .7-.7.7.7 0 0 1-.7.7m-2.848-.938a.244.244 0 0 0-.243.242.63.63 0 1 0-.63.631.631.631 0 0 0 .63-.631.243.243 0 1 0 .243-.243Zm-.873.647a.4.4 0 1 1 .4-.4.4.4 0 0 1-.4.4m5.065-.582a.178.178 0 1 0 .178.178.178.178 0 0 0-.178-.178m0 .226a.049.049 0 1 1 .048-.048.049.049 0 0 1-.048.048M15.114 5a.437.437 0 1 0 .436.437.437.437 0 0 0-.436-.437m0 .76a.324.324 0 1 1 .323-.323.324.324 0 0 1-.323.319zm0-.537a.21.21 0 1 0 .21.21.211.211 0 0 0-.21-.21m1.552-1.016V2.824A.825.825 0 0 0 15.842 2H8.051a.825.825 0 0 0-.824.824v1.383A.155.155 0 0 0 7.2 4.3v2.264a.16.16 0 0 0 .032.095v1.764h-.42v1.519h.42v.9h-.42V13.6h.42v7.581a.825.825 0 0 0 .819.819h7.791a.825.825 0 0 0 .824-.824V6.658a.15.15 0 0 0 .033-.094V4.3a.15.15 0 0 0-.033-.093m-9.439 9.162h-.194v-2.295h.194zm0-3.653h-.194V8.649h.194zm5.6 2.44H12.8a.868.868 0 0 1-.687.7.85.85 0 0 1-.165.016.867.867 0 1 1 .623-1.469l-.224.216a.557.557 0 1 0 .133.542h-.533v-.312h.879zm3.613-5.609a1.53 1.53 0 0 1-.5.066H7.954a1.54 1.54 0 0 1-.5-.066V4.318a1.58 1.58 0 0 1 .5-.065h7.985a1.57 1.57 0 0 1 .5.065z"/></svg>

<?xml version="1.0" encoding="UTF-8"?>
<svg width="24px" fill="#44739e" height="24px" viewBox="0 0 24 24" version="1.1" xmlns="http://www.w3.org/2000/svg" xmlns:xlink="http://www.w3.org/1999/xlink">
            <path d="M 12.994,4.511 A 0.923,0.923 0 0 0 12.1,5.2 0.923,0.923 0 0 0 11.209,4.513 H 9.273 a 0.922,0.922 0 0 0 0,1.843 h 1.939 A 0.923,0.923 0 0 0 12.103,5.67 0.921,0.921 0 1 0 12.994,4.513 Z M 9.273,6.128 a 0.7,0.7 0 0 1 0,-1.39 h 1.633 a 0.76,0.76 0 0 0 0,1.39 z m 1.94,-0.162 a 0.534,0.534 0 1 1 0.533,-0.533 0.534,0.534 0 0 1 -0.533,0.533 z m 1.781,0.162 a 0.7,0.7 0 1 1 0.7,-0.7 0.7,0.7 0 0 1 -0.7,0.7 z M 10.146,5.19 A 0.244,0.244 0 0 0 9.903,5.432 0.63,0.63 0 1 0 9.273,6.063 0.631,0.631 0 0 0 9.903,5.432 0.243,0.243 0 1 0 10.146,5.189 Z M 9.273,5.837 a 0.4,0.4 0 1 1 0.4,-0.4 0.4,0.4 0 0 1 -0.4,0.4 z m 5.065,-0.582 a 0.178,0.178 0 1 0 0.178,0.178 0.178,0.178 0 0 0 -0.178,-0.178 z m 0,0.226 A 0.049,0.049 0 1 1 14.386,5.433 0.049,0.049 0 0 1 14.338,5.481 Z M 15.114,5 A 0.437,0.437 0 1 0 15.55,5.437 0.437,0.437 0 0 0 15.114,5 Z m 0,0.76 a 0.324,0.324 0 1 1 0.323,-0.323 0.324,0.324 0 0 1 -0.323,0.319 z m 0,-0.537 a 0.21,0.21 0 1 0 0.21,0.21 0.211,0.211 0 0 0 -0.21,-0.21 z M 16.666,4.207 V 2.824 A 0.825,0.825 0 0 0 15.842,2 H 8.051 A 0.825,0.825 0 0 0 7.227,2.824 V 4.207 A 0.155,0.155 0 0 0 7.2,4.3 v 2.264 a 0.16,0.16 0 0 0 0.032,0.095 v 1.764 h -0.42 v 1.519 h 0.42 v 0.9 H 6.812 V 13.6 h 0.42 v 7.581 A 0.825,0.825 0 0 0 8.051,22 h 7.791 a 0.825,0.825 0 0 0 0.824,-0.824 V 6.658 A 0.149,0.149 0 0 0 16.699,6.564 V 4.3 A 0.149,0.149 0 0 0 16.666,4.207 Z M 7.227,13.369 H 7.033 v -2.295 h 0.194 z m 0,-3.653 H 7.033 V 8.649 h 0.194 z m 5.6,2.44 H 12.8 a 0.868,0.868 0 0 1 -0.687,0.7 0.854,0.854 0 0 1 -0.165,0.016 0.867,0.867 0 1 1 0.623,-1.469 l -0.224,0.216 a 0.557,0.557 0 1 0 0.133,0.542 h -0.533 v -0.312 h 0.879 z M 16.44,6.547 a 1.533,1.533 0 0 1 -0.5,0.066 H 7.954 A 1.538,1.538 0 0 1 7.454,6.547 V 4.318 a 1.575,1.575 0 0 1 0.5,-0.065 h 7.985 a 1.57,1.57 0 0 1 0.5,0.065 z"/>

</svg>
